!!!!SEGMENT: pl-wnifc--6829-n--001-003_wronski-adam--podkoweczki-ognia-dajcie-op-128-mazur-no-3.krn
!!!cenid: 18xx:4065
!!!COM: Wroński, Adam
!!!COM-rismID: pe50044737
!!!CDT: ~1850-1915/12/17
!!!CNT: Polish
!!!GTL: Podkóweczki, ognia dajcie! op. 128
!!!OTL: Mazur No. 3
!!!OMV: 003
!!!PDT:
!!!AGN:
!!!YEC: Copyright 2022 Narodowy Instytut Fryderyka Chopina (https://polishscores.org)
!!!YEM: License CC-BY-4.0 (https://creativecommons.org/licenses/by/4.0)
!!!SMS-siglum: PL-Wnifc
!!!SMS-shelfmark: 6829/n
!!!SMS-shelfwork: 001-003 G
!!!SMS-variant:
!!!SMS-altvar:
!!!NIFC-rismSourceID: 1001160787
!!!NIFC-rismChildID: 1001160787
!!!NIFC-islandoraID: nifc:213786
!!!URL-pdf-islandora: https://repozytorium.nifc.pl/islandora/object/nifc%3A213786/datastream/PDF/view
!!!URL-scan: https://polish.musicsources.pl/pl/lokalizacje/galeria/druki-muzyczne/16946-podkoweczki-dajcie-ognia/3 @EN{Scan on Polish Music Sources Website} @PL{Skany w portalu Dziedzictwo Muzyki Polskiej w otwartym dostępie}
!!!IIIF:
!!!ONB-nifc: UWAGA: w zbiorze 3 Mazury numerowane 001-003
!!!AIN: 2 piano
!!!key: D
**kern	**kern	**dynam
*part2	*part1	*
*staff2	*staff1	*
*I"Fortepian	*I"Fortepian	*
*I'pf	*I'pf	*
*ICklav	*ICklav	*
*Ipiano	*Ipiano	*
*clefF4	*clefG2	*
*k[f#c#]	*k[f#c#]	*
*D:	*D:	*
*M3/8	*M3/8	*
=1	=1	=1
8D\L	16.a\LL	mf
.	32dd\JJk	.
8F#\ 8A 8d	8dd\L	.
.	(8qee/	.
8F#\J 8A 8d	16dd\L)	.
.	16cc#\JJ	.
=2	=2	=2
8D\L	16.dd\LL	.
.	32ff#\JJk	.
8F#\ 8A 8d	8dd\L	.
8F#\J 8A 8d	16cc#\L	.
.	16b\JJ	.
=3	=3	=3
8AA\L	16.a\LL	.
.	32cc#\JJk	.
8G\ 8A 8c#	8cc#\L	.
.	(8qdd/	.
8G\J 8A 8c#	16cc#\L)	.
.	16b\JJ	.
=4	=4	=4
8AA\L	16.a\LL	.
.	32cc#\JJk	.
8G\ 8A 8c#	8ee\L	.
8AAA^\J 8AA	8a^\J 8cc# 8ee 8aa	.
=5	=5	=5
8D\L	16.a\LL	.
.	32dd\JJk	.
8F#\ 8A 8d	8dd\L	.
.	(8qee/	.
8F#\J 8A 8d	16dd\L)	.
.	16cc#\JJ	.
!!LO:LB:g=original	!	!
=6	=6	=6
8D\L	16.dd\LL	.
.	32ff#\JJk	.
8F#\ 8A 8d	8dd\L	.
8F#\J 8A 8d	16cc#\L	.
.	16b\JJ	.
=7	=7	=7
8AA\L	16.a\LL	.
.	32cc#\JJk	.
8G\ 8A 8c#	8cc#\L	.
.	(8qdd/	.
8G\J 8A 8c#	16cc#\L)	.
.	16b\JJ	.
=8	=8	=8
8AA\L 8E 8G	16.a\LL	.
.	32cc#\JJk	.
8AA\ 8C# 8G	8ee\L	.
8D\J 8F#	8dd\J	.
=9:|!|:	=9:|!|:	=9:|!|:
8D\L	16.dd\LL 16.ff#	.
.	32ee\JJk 32gg	.
8F#\ 8A 8d	8ff#\L 8aa	.
8F#\J 8A 8d	8ff#\J 8aa	.
=10	=10	=10
8BB\L	16ff#\LL 16aa	.
.	16ff#\JJ 16aa	.
8D#X\ 8F# 8A 8B	8.gg\L 8.bb	.
8D#\J 8F# 8A 8B	.	.
.	16ff#\Jk 16aa	.
!!LO:LB:g=original	!	!
=11	=11	=11
8E\L	16.ff#\LL 16.aa	.
.	32ee\JJk 32gg	.
8G\ 8B	8ee\L 8gg	.
.	(8qaa/	.
8G\J 8B	16ee\L) 16gg	.
.	16dd#X\JJ 16ff#	.
=12	=12	=12
8AA\L	16.ee\LL 16.gg	.
.	32gg\JJk 32bb	.
8G\ 8A 8c#	8ff#\L 8aa	.
8G\J 8A 8c#	8ee\J 8gg	.
=13	=13	=13
8D\L	8dd\L 8ff#	.
8F#\ 8A 8d	8dd\ 8ff#	.
8F#\J 8A 8d	8dd\J 8ff#	.
=14	=14	=14
8D\L	16.dd\LL 16.ff#	.
.	32ff#\JJk 32aa	.
8F#\ 8A 8d	8ee\L 8gg	.
8F#\J 8A 8d	8dd\J 8ff#	.
=15	=15	=15
.	(>8qa/	.
8AA\L	8aa\L)	.
!	!LO:TUP:a:problem:klamra łukowa	!
8G\ 8A 8c#	24gg\L	.
.	24aa\	.
.	24gg\JJ	.
8G\J 8A 8c#	16ff#\LL	.
.	16ee\JJ	.
=16	=16	=16
8D\L 8F# 8A 8d	8dd\L	.
!	!LO:TX:b:B:i:t=Fine.	!
8DD\J 8D	8dd\J 8ff# 8aa 8ddd	.
8r	8r	.
!!LO:LB:g=original	!	!
=17:|!	=17:|!	=17:|!
*clefF4	*clefG2	*
*k[f#]	*k[f#]	*
*M3/8	*M3/8	*
!	!LO:TX:B:a:t=Trio.	!
8GG/L 8D 8G	16.B/LL 16.g	p
.	32B/JJk 32g	.
8GG/ 8D 8G	8B/L 8f#	.
8GG/J 8D 8G	8B/J 8e	.
=18	=18	=18
8GG/L 8D 8G	16.B/LL 16.d	.
.	32c#X/JJk	.
8GG/ 8D 8G	8B/L 8e	.
8GG/J 8D 8G	8B/J 8d	.
=19	=19	=19
8GG/L 8D 8G	16.B/LL 16.g	.
.	32B/JJk 32g	.
8GG/ 8D 8G	8B/L 8f#	.
8GG/J 8D 8G	8B/J 8e	.
=20	=20	=20
.	(8qf#/	.
8GG/ 8D 8G	8B/) 8e	.
4GG/ 4D 4G	4B/ 4d	.
=21	=21	=21
8DD/ 8D	8cc\ 8dd	.
4D\ 4A 4c	4cc^\ 4ff# 4ccc	.
=22	=22	=22
!	!LO:TUP:a:problem:klamra łukowa	!
8GG\L	24bb\LL	.
.	24ccc\	.
.	24bb\JJ	.
8D\ 8G 8B	8aa\L	.
8D\J 8G 8B	8gg\J	.
!!LO:LB:g=original	!	!
=23	=23	=23
!	!LO:TUP:a:problem:klamra łukowa	!
8DD\L	24aa\LL	.
.	24bb\	.
.	24aa\JJ	.
8D\ 8A 8c	8ff#\L	.
8D\J 8A 8c	8aa\J	.
=24	=24	=24
8GG\L	16.gg\LL	.
.	32gg\JJk	.
8D\ 8G 8B	8bb\L	.
8D\J 8G 8B	8ddd\J	.
=25	=25	=25
8DD/ 8D	8cc\ 8dd	.
4D\ 4A 4c	4cc\ 4ff# 4ccc	.
=26	=26	=26
!	!LO:TUP:a:problem:klamra łukowa	!
8GG\L	24bb\LL	.
.	24ccc\	.
.	24bb\JJ	.
8D\ 8G 8B	8aa\L	.
8D\J 8G 8B	8gg\J	.
=27	=27	=27
!	!LO:TUP:a:problem:klamra łukowa	!
8DD\L	24aa\LL	.
.	24bb\	.
.	24aa\JJ	.
8D\ 8A 8c	16ff#\LL	.
.	16dd\	.
8D\J 8A 8c	16ee\	.
.	16ff#\JJ	.
=28	=28	=28
8G\L 8B	8gg\L	.
8GGG\J 8GG	8gg\J 8bb 8ddd 8ggg	.
!LO:TX:b:B:i:t=No 3. D.C. al Fine.	!	!
8r	8r	.
=:|!	=:|!	=:|!
*-	*-	*-
!!!system-decoration: {(s1,s2)}
!!!RDF**kern: > = above
!!!RDF**kern: < = below
!!!ENC: Berenika Jozajtis
!!!END: 2022-08-16
!!!ENC: Natalia Wrzos
!!!END: 2022-09-17
